X:1
T:Kadrilj efter Isabella Johansson
O:Tving, Blekinge
R:Kadrilj
M:4/4
L:1/8
Z:Från Lena Dalquists "Låtar från Blekinge" - Andy Davey 2018
K:D
Q:1/2=90
A,2 |: D2 DE F2 FG | A2 A2 F4 | dcBc d2 B2 | A2 dd F4 | 
    | F2 EF G4 | FEFG A4 | A2 d2 AGFE | D2 D2 D4 :| 
|: E2 A2 A2 ^GF | E2 c2 c4 | ^G2 B2 edcB |[1 A2 A2 A4 :|[2 A2 A2 A2
|: AG | F2 D2 F4 | E2 FG A2 Bc | d2 cB A2 AG | F2 D2 F4 | E2 FG A2 Bc | d2 d2 d2 :|

